X: 2439
M: C
L: 1/8
K: C
[|\
c'2e>f g2c>d | e>Bc>A G4 |\
c'2e>f g2c>d | e>Bc>A G4 |
e2a2 e2d2 | c>dc>B A2E2 |
e2d>e c>dB>c |[1 A2z2 a2z2 :|\
[2 "_D.C. and then to TRIO."A2z2 [g2B2]z2 |]
P: TRIO.
K: F
|:\
f2fa cfAc | FAcf a4 |\
g2gb egce | Gceg b4 |\
f2fa cfAc | FAcf a3f |\
efga bcde | f2f2f2 "_D.C."z2 :|


